packages/core/src/svgs/tarot.svg

<svg width="24" height="24" viewBox="0 0 24 24" fill="none" xmlns="http://www.w3.org/2000/svg">
<g clip-path="url(#clip0_31_19612)">
<path d="M0 0H24V24H0V0Z" fill="url(#paint0_linear_31_19612)"/>
<path fill-rule="evenodd" clip-rule="evenodd" d="M17.6229 13.6974C17.3486 13.8516 17.1943 14.0702 17.1386 14.3659C17.1086 14.5459 17.1729 14.7816 17.2243 14.9488C17.3957 15.5488 17.5415 16.0631 17.6529 16.4831C17.7 16.6802 17.7343 16.9716 17.6529 17.1688C17.5243 17.4431 17.2586 17.6874 16.9415 17.6959C16.7529 17.6959 16.5686 17.6745 16.3843 17.6274C15.9386 17.5074 15.4843 17.3788 15.0086 17.2416C14.6143 17.1216 14.2029 17.0531 13.8815 17.3788C13.7957 17.4731 13.7057 17.5931 13.6243 17.7345L13.44 18.0774C13.2205 18.5004 12.9802 18.9123 12.72 19.3116C12.5229 19.6074 12.2572 19.7402 11.9229 19.7102C11.7309 19.7007 11.5498 19.6179 11.4172 19.4788C11.2886 19.3416 11.1557 19.1574 11.0272 18.9259L10.3629 17.7259C10.3157 17.6402 10.26 17.5545 10.2 17.4688C9.91717 17.0831 9.46288 17.0959 9.05574 17.2159C8.58431 17.3574 8.11288 17.4945 7.63717 17.6231C7.51717 17.6531 7.3886 17.6702 7.26431 17.6874C7.09302 17.7183 6.91633 17.6939 6.75988 17.6176C6.60343 17.5413 6.47538 17.4171 6.39431 17.2631C6.29574 17.0959 6.26574 16.9031 6.3086 16.6845C6.34717 16.4831 6.39431 16.2988 6.43717 16.1231L6.8186 14.7945C6.86681 14.654 6.87952 14.5038 6.8556 14.3573C6.83167 14.2107 6.77184 14.0723 6.68145 13.9545C6.59574 13.8431 6.41574 13.7102 6.14574 13.5645L5.09145 12.9859C4.9029 12.8799 4.72368 12.758 4.55574 12.6216C4.28145 12.4031 4.23431 12.0216 4.33288 11.6959C4.41431 11.4474 4.68431 11.2588 4.91574 11.1259C5.30574 10.8988 5.71288 10.6716 6.14145 10.4402C6.33192 10.35 6.50579 10.2283 6.65574 10.0802C6.91288 9.7545 6.89574 9.45022 6.77574 9.05165C6.61552 8.53582 6.46975 8.01562 6.3386 7.49164C6.30778 7.36828 6.29195 7.24165 6.29145 7.1145C6.29145 6.87879 6.40288 6.6645 6.62574 6.47165C6.94717 6.21022 7.38431 6.30879 7.74002 6.41164L9.00002 6.77164C9.40717 6.89164 9.79717 6.9345 10.1015 6.63879C10.1915 6.55307 10.2815 6.4245 10.3757 6.24879C10.6586 5.72593 10.9329 5.23736 11.2072 4.77879C11.25 4.71022 11.31 4.63736 11.3872 4.55164C11.4733 4.45987 11.579 4.38864 11.6964 4.34322C11.8138 4.29779 11.9399 4.27933 12.0654 4.28921C12.1909 4.29908 12.3126 4.33704 12.4215 4.40027C12.5303 4.4635 12.6236 4.55038 12.6943 4.6545C12.8186 4.82593 12.93 5.01022 13.0372 5.19879L13.6886 6.37307C13.9415 6.8145 14.3315 6.96022 14.8629 6.80164C15.3515 6.6645 15.8529 6.51879 16.3629 6.38165C16.4915 6.34307 16.6286 6.32593 16.7615 6.30879C16.9201 6.2858 17.082 6.31014 17.2268 6.37876C17.3717 6.44737 17.493 6.55721 17.5757 6.6945C17.7343 6.9345 17.7172 7.25165 17.6529 7.50879C17.5185 8.0254 17.3757 8.53976 17.2243 9.05165C17.19 9.1545 17.1643 9.26593 17.1472 9.38593C17.0786 9.77164 17.2757 10.1145 17.6186 10.3031L18.8272 10.9759C19.0072 11.0745 19.1786 11.1859 19.3415 11.3016C19.6286 11.5031 19.7486 11.7731 19.7057 12.1159C19.68 12.3388 19.5772 12.5188 19.3972 12.6602C19.2386 12.7802 19.0672 12.8916 18.8829 12.9945L17.6229 13.6974ZM17.1557 12.9131C16.7853 13.1161 16.4976 13.4424 16.3426 13.8354C16.1876 14.2284 16.1751 14.6632 16.3072 15.0645C16.4443 15.5531 16.5729 16.0116 16.7015 16.4402C16.7272 16.5345 16.7486 16.6374 16.7615 16.7402C16.7615 16.7616 16.7572 16.7702 16.74 16.7659C16.5772 16.7359 16.41 16.6974 16.2386 16.6459L15.2872 16.3674C15.0411 16.2883 14.7864 16.2394 14.5286 16.2216C13.7315 16.2131 13.1829 16.6331 12.8143 17.3145C12.5563 17.7902 12.2905 18.2617 12.0172 18.7288C12.0132 18.7311 12.0089 18.7326 12.0044 18.7331C11.9999 18.7337 11.9953 18.7334 11.9909 18.7322C11.9865 18.731 11.9824 18.729 11.9788 18.7262C11.9752 18.7234 11.9722 18.7199 11.97 18.7159L11.8929 18.5874C11.6255 18.1073 11.3555 17.6287 11.0829 17.1516C10.885 16.7932 10.5708 16.5129 10.1921 16.357C9.81341 16.2012 9.39292 16.1792 9.00002 16.2945C8.58431 16.4059 8.17717 16.5216 7.77431 16.6374C7.59676 16.6899 7.4165 16.7328 7.23431 16.7659C7.22824 16.764 7.22312 16.7598 7.21995 16.7542C7.21678 16.7487 7.21579 16.7422 7.21717 16.7359C7.36655 16.1663 7.52514 15.599 7.69288 15.0345L7.71002 14.9659C7.74002 14.8374 7.77431 14.7088 7.77431 14.5802C7.79062 14.2217 7.69989 13.8664 7.51367 13.5596C7.32746 13.2528 7.05417 13.0084 6.7286 12.8574C6.23781 12.5841 5.74922 12.307 5.26288 12.0259C5.26051 12.0226 5.25884 12.0188 5.25798 12.0148C5.25713 12.0108 5.2571 12.0067 5.2579 12.0026C5.25871 11.9986 5.26032 11.9948 5.26265 11.9915C5.26498 11.9881 5.26798 11.9852 5.27145 11.9831C5.3786 11.9145 5.48574 11.8545 5.58431 11.7988L6.85717 11.0831C7.09164 10.9556 7.29434 10.7769 7.45017 10.5602C7.60599 10.3435 7.71093 10.0945 7.75717 9.83165C7.80861 9.49611 7.77622 9.15305 7.66288 8.83307C7.51185 8.31132 7.3647 7.78845 7.22145 7.2645C7.2228 7.25935 7.2255 7.25465 7.22926 7.25088C7.23303 7.24712 7.23773 7.24442 7.24288 7.24307H7.25574C7.3586 7.26022 7.45717 7.28164 7.55574 7.30736L8.59717 7.60736C8.98288 7.72307 9.27431 7.78307 9.47145 7.78736C9.98145 7.79593 10.4186 7.61593 10.7829 7.26022C10.9029 7.14022 11.0229 6.97307 11.1429 6.75879C11.4191 6.26095 11.6991 5.76523 11.9829 5.27165C11.9868 5.26939 11.9912 5.2682 11.9957 5.2682C12.0003 5.2682 12.0047 5.26939 12.0086 5.27165L12.0172 5.27593C12.0943 5.39165 12.1586 5.50307 12.2186 5.60593L12.8529 6.74593C12.9986 7.00307 13.1743 7.26022 13.41 7.43164C13.7529 7.68022 14.1257 7.79593 14.5243 7.78736C14.8175 7.76647 15.1069 7.70887 15.3857 7.61593L16.3286 7.33736C16.4729 7.29985 16.6188 7.26839 16.7657 7.24307L16.77 7.25164V7.26022C16.7529 7.37165 16.7272 7.4745 16.6972 7.57736C16.5772 8.01022 16.4529 8.44736 16.3243 8.88022C16.1229 9.5745 16.2343 10.2859 16.7529 10.7916C16.9029 10.9331 17.1472 11.0959 17.49 11.2802C17.9057 11.5074 18.3129 11.7345 18.7072 11.9659C18.75 11.9916 18.75 12.0174 18.7072 12.0431C18.3515 12.2574 17.9872 12.4588 17.6272 12.6602L17.16 12.9174L17.1557 12.9131ZM15.0729 15.0388C15.6765 14.4277 16.086 13.6517 16.2496 12.8084C16.4133 11.9652 16.3239 11.0923 15.9927 10.2998C15.6614 9.50722 15.1032 8.83033 14.3882 8.35429C13.6731 7.87826 12.8333 7.62435 11.9743 7.6245C11.4033 7.62562 10.8381 7.73948 10.3112 7.95956C9.78433 8.17963 9.30608 8.50158 8.90391 8.90694C8.50174 9.31229 8.18357 9.79307 7.96766 10.3217C7.75175 10.8503 7.64235 11.4164 7.64574 11.9874C7.64914 13.1407 8.10999 14.2456 8.92713 15.0595C9.74428 15.8734 10.851 16.3299 12.0043 16.3288C13.1572 16.3245 14.2586 15.8616 15.0729 15.0431V15.0388ZM12.9986 11.4731C13.1993 11.3655 13.4239 11.3103 13.6517 11.3125C13.8794 11.3148 14.1029 11.3744 14.3015 11.4859C14.4129 11.5374 14.4986 11.5802 14.6272 11.4859L14.6529 11.4731C14.7257 11.4216 14.7986 11.3745 14.8372 11.2888C14.8972 11.1516 14.8543 11.0274 14.7257 10.9459C14.4092 10.7579 14.0511 10.6509 13.6833 10.6345C13.3154 10.618 12.9493 10.6926 12.6172 10.8516C12.4286 10.9459 12.0729 11.1431 12.0386 11.3702L12.0257 11.4302C12.0129 11.5074 12 11.5802 12 11.6531V13.9674H12.6772C12.7249 13.9674 12.7707 13.9484 12.8044 13.9146C12.8382 13.8809 12.8572 13.8351 12.8572 13.7874V11.8288C12.8572 11.7002 12.8572 11.5374 12.9986 11.4688V11.4731ZM11.1815 11.2159C11.1 11.4474 10.8943 11.4902 10.68 11.4474C10.3457 11.3788 9.95145 11.4045 9.65145 11.5674C9.56574 11.6145 9.48002 11.6188 9.40288 11.5802C9.30891 11.5317 9.22692 11.4629 9.16288 11.3788C9.14385 11.3527 9.1302 11.3231 9.1227 11.2916C9.11519 11.2602 9.114 11.2276 9.11918 11.1957C9.12436 11.1638 9.13582 11.1333 9.15288 11.1059C9.16995 11.0784 9.19228 11.0547 9.2186 11.0359C9.47534 10.8832 9.76031 10.784 10.0564 10.7442C10.3525 10.7044 10.6535 10.7249 10.9415 10.8045C11.1429 10.8474 11.2586 11.0016 11.1815 11.2159Z" fill="white"/>
</g>
<defs>
<linearGradient id="paint0_linear_31_19612" x1="4.46571" y1="4.16143" x2="29.2071" y2="32.58" gradientUnits="userSpaceOnUse">
<stop stop-color="#1A1E21"/>
<stop offset="1" stop-color="#06060A"/>
</linearGradient>
<clipPath id="clip0_31_19612">
<rect width="24" height="24" fill="white"/>
</clipPath>
</defs>
</svg>

<svg xmlns="http://www.w3.org/2000/svg" width="24" height="24" fill="none" viewBox="0 0 24 24"><g clip-path="url(#a)"><path fill="url(#b)" d="M0 0h24v24H0z"/><path fill="#fff" fill-rule="evenodd" d="M17.623 13.697a.92.92 0 0 0-.484.669c-.03.18.034.416.085.583q.26.902.429 1.534c.047.197.081.489 0 .686-.129.274-.394.518-.711.527-.19 0-.373-.022-.558-.069-.445-.12-.9-.248-1.375-.385-.395-.12-.806-.189-1.127.137a2 2 0 0 0-.258.355l-.184.343q-.33.635-.72 1.235-.296.443-.797.398a.75.75 0 0 1-.506-.231 2.8 2.8 0 0 1-.39-.553l-.664-1.2a3 3 0 0 0-.163-.257c-.283-.386-.737-.373-1.144-.253q-.706.212-1.419.407c-.12.03-.248.047-.373.064a.82.82 0 0 1-.87-.424.8.8 0 0 1-.085-.579c.038-.2.085-.385.128-.56l.382-1.33a.9.9 0 0 0-.138-.84c-.085-.11-.265-.244-.535-.39l-1.055-.578a4 4 0 0 1-.535-.364c-.275-.219-.322-.6-.223-.926.081-.249.351-.437.583-.57q.584-.34 1.225-.686c.19-.09.365-.212.515-.36.257-.325.24-.63.12-1.028a29 29 0 0 1-.437-1.56 1.6 1.6 0 0 1-.048-.378q0-.353.335-.642c.321-.262.758-.163 1.114-.06l1.26.36c.407.12.797.162 1.101-.133q.134-.128.275-.39c.283-.523.557-1.012.831-1.47q.064-.101.18-.227a.84.84 0 0 1 1.307.103c.125.17.236.355.343.544l.652 1.174c.252.441.643.587 1.174.429.489-.137.99-.283 1.5-.42.128-.039.266-.056.399-.073a.81.81 0 0 1 .814.385c.158.24.141.558.077.815a49 49 0 0 1-.429 1.543q-.051.154-.077.334c-.068.386.129.729.472.917l1.208.673c.18.098.352.21.514.326q.43.3.365.814a.78.78 0 0 1-.309.544 4.4 4.4 0 0 1-.514.335zm-.467-.784a1.81 1.81 0 0 0-.849 2.152c.137.488.266.947.395 1.375q.039.144.06.3.002.032-.022.026a5 5 0 0 1-.501-.12l-.952-.279q-.37-.119-.758-.145c-.797-.009-1.346.411-1.715 1.092q-.387.714-.797 1.415l-.013.004a.03.03 0 0 1-.034-.017l-.077-.129q-.402-.72-.81-1.435A1.8 1.8 0 0 0 9 16.294q-.623.17-1.226.343a5 5 0 0 1-.54.129.026.026 0 0 1-.017-.03 55 55 0 0 1 .476-1.702l.017-.068c.03-.129.064-.257.064-.386a1.81 1.81 0 0 0-1.045-1.723q-.737-.41-1.466-.831a.03.03 0 0 1 .008-.043c.108-.069.215-.129.313-.184l1.273-.716a1.77 1.77 0 0 0 .9-1.251c.052-.336.02-.679-.094-.999q-.226-.783-.442-1.569a.03.03 0 0 1 .022-.02h.013q.153.025.3.063l1.041.3q.579.174.874.18a1.77 1.77 0 0 0 1.312-.527 2.3 2.3 0 0 0 .36-.501q.414-.747.84-1.487a.03.03 0 0 1 .026 0l.008.004q.114.175.202.33l.634 1.14c.146.257.321.514.557.686a1.8 1.8 0 0 0 1.114.355q.442-.03.862-.171l.943-.279a5 5 0 0 1 .437-.094l.004.009v.008a2.4 2.4 0 0 1-.073.317q-.18.652-.373 1.303c-.201.694-.09 1.406.429 1.912q.224.212.737.488.625.34 1.217.686.064.039 0 .077c-.355.214-.72.416-1.08.617l-.467.257zm-2.083 2.126a4.354 4.354 0 0 0-3.099-7.414 4.337 4.337 0 0 0-4.328 4.362 4.354 4.354 0 0 0 4.358 4.342 4.35 4.35 0 0 0 3.069-1.286zm-2.074-3.566a1.35 1.35 0 0 1 1.303.013c.11.051.197.094.325 0l.026-.013c.073-.051.146-.099.184-.184.06-.137.017-.262-.111-.343a2.24 2.24 0 0 0-2.109-.094c-.188.094-.544.291-.578.518l-.013.06c-.013.077-.026.15-.026.223v2.314h.677a.18.18 0 0 0 .18-.18V11.83c0-.129 0-.292.142-.36zm-1.818-.257c-.081.231-.287.274-.501.231-.334-.068-.729-.042-1.029.12a.26.26 0 0 1-.248.013.7.7 0 0 1-.24-.201.244.244 0 0 1 .056-.343 2.22 2.22 0 0 1 1.723-.231c.2.042.317.197.24.41" clip-rule="evenodd"/></g><defs><linearGradient id="b" x1="4.466" x2="29.207" y1="4.161" y2="32.58" gradientUnits="userSpaceOnUse"><stop stop-color="#1A1E21"/><stop offset="1" stop-color="#06060A"/></linearGradient><clipPath id="a"><path fill="#fff" d="M0 0h24v24H0z"/></clipPath></defs></svg>
